X:74
T:O Haupt voll Blut und Wunden
C:BWV 244-54
M:C
L:1/4
K:F
V:1
A|d c B A|G2 HA e|f f e/d/ e|Hd3:|f|e/d/ c d e|f2 Hf c|d c B/A/ B|HA3 f|e/f/ g f e|d2 He A|B A G c|HA3|]
V:4 clef=bass 
D/C/|B,"6"A,G,F,|"6;5"B,,C,HF,"6"^C,|"2"D,/E,/ "6"F,/G,/"4"A,"#"A,,|HD,3:|D,|"6"G,"7"A,"2"B,/A,/"6"G,|"6;4"F,2HF,F,|B,"4+"^F,G,G,,|"#"HD,3"4+"=B,,|C,C/B,/"6"A,"6;4"G,|"6;5"F,"#"G,HC,F,|G,"6"A,/B,/"4"CC,|HF,3|]


